remix/System/eye-2-line.svg

<svg viewBox="0 0 24 24" fill="currentColor" xmlns="http://www.w3.org/2000/svg"><path d="M12 2C17.5228 2 22 6.47715 22 12C22 17.5228 17.5228 22 12 22C6.47715 22 2 17.5228 2 12C2 6.47715 6.47715 2 12 2ZM12 4C7.58172 4 4 7.58172 4 12C4 16.4183 7.58172 20 12 20C16.4183 20 20 16.4183 20 12C20 7.58172 16.4183 4 12 4ZM12 7C14.7614 7 17 9.23858 17 12C17 14.7614 14.7614 17 12 17C9.23858 17 7 14.7614 7 12C7 11.4872 7.07719 10.9925 7.22057 10.5268C7.61175 11.3954 8.48527 12 9.5 12C10.8807 12 12 10.8807 12 9.5C12 8.48527 11.3954 7.61175 10.5269 7.21995C10.9925 7.07719 11.4872 7 12 7Z"/></svg>

<svg viewBox="0 0 24 24" xmlns="http://www.w3.org/2000/svg"><path fill="none" d="M0 0h24v24H0Z"/><path d="M12 2c5.523 0 10 4.477 10 10s-4.477 10-10 10C6.477 22 2 17.523 2 12 2 6.477 6.477 2 12 2Zm0 2v0c-4.42 0-8 3.58-8 8 0 4.41 3.58 8 8 8v0c4.41 0 8-3.59 8-8 0-4.42-3.59-8-8-8Zm0 3v-.001c2.76 0 4.99 2.24 4.99 5 -.01 2.76-2.25 4.99-5.01 4.99 -2.77-.01-5-2.25-5-5.01 0-.5.07-1 .22-1.48H7.19c.56 1.25 2.04 1.82 3.3 1.26 .9-.41 1.48-1.3 1.47-2.29v0c0-.99-.58-1.88-1.48-2.28 .46-.15.96-.22 1.47-.22Z"/></svg>
